X:667
T:Reel 667
M:4/4
K:Gmaj
L:1/8
d|g2dc BcdB|ABcd eAAf|g2dc BcdB|cedc BGGf|g2dc BcdB|ABcd efaf|gefd ecdB|Acdc BGG|A|BGDG BcdB|ABcd eAAc|BGDG BcdB|cedc BGGA|BGDG BcdB|ABcd AGFA|Bcdf gfef|gbac bg||
